X:9
T:Anchors Aweigh
M:4/4
K:HP
|:{gAd}A4{g}c2e2 |{gfg}f3c1{g}f4 |{Gdc}d4{gef}e2A2 |{Gdc}d4-d4 |!
[1 !rbstop! x  {gBd}B4 {Gdc}d2B2 |{gAd}A2B2 {g}c2{Gdc}d2 |{g}G2{d}B2{gef}e2d2 |{gcd}c2{g}A2{gfg}f2{g}e2 :|!
[2 !rbstop! x {gBd}B4 {Gdc}d2B2 |{gAd}A2B2 {g}c2{Gdc}d2 |{g}f3/2A/2 {g}G1{d}A1 {g}e3/2A/2 {g}G1{d}A1 |{Gdc}d4{gdG}d4 |]

%%newpage

